!!!OTL: ALS DIE PREUSSEN MARSCHIRTEN
!!!ARE: Europa, Mitteleuropa, Deutschland, Preussen
!!!SCT: Z0096
!!!YEM: Copyright 1995, estate of Helmut Schaffrath.
**kern
*ICvox
*Ivox
*M4/4
*k[]
*C:
{8G
8G
=1
8c
8G
8E
8G
4c
8c
8d
=2
2e
4r}
{8c
8d
=3
4.e
8e
8e
8g
8f
8a
=4
2g
4r}
{4g
=5
4f
8d
8d
4e
8c
8e
=6
4d
4G
4r}
{4g
=7
8.f
16f
8d
8f
4e
8c
8e
=8
4d
4G
4r}
{4G
=9
8.c
16c
8.B
16B
8.A
16B
8c
8A
=10
2G
4r}
{8c
8e
=11
8.d
16G
8g
8f
4e
4d
=12
2c
4r}
==
!!!AGN: Sagen - Lied, Romanze, Soldaten - Lied
!!!ONB: ESAC (Essen Associative Code) Database: ZUCCAL
!!!AMT: simple quadruple
!!!AIN: vox
!!!EED: Helmut Schaffrath
!!!EEV: 1.0
*-
